!!!OTL: DEN I SO GERNE HAETT
!!!ARE: Europa, Mitteleuropa, Oesterreich, Tirol
!!!SCT: F0171A
!!!YEM: Copyright 1995, estate of Helmut Schaffrath.
**kern
*ICvox
*Ivox
*M3/4
*k[]
*C:
{8E
8E
8F
=1
4G
8.e
16d
8c
8A
=2
8.G
16E
8E}
{8G
8A
8G
=3
8.G
16D
8D
8F
8A
8G
=4
8.G
16E
8E}
{8E
8E
8F
=5
8G
8G
8.e
16d
8c
8A
=6
8.G
16E
8E}
{8G
8A
8G
=7
8.G
16D
8D
8f
8.B
16B
=8
4c
8r}
==
!!!AGN: Liebes - Lied
!! nur 4. Strophe notiert
!!!ONB: ESAC (Essen Associative Code) Database: FINK
!!!AMT: simple triple
!!!AIN: vox
!!!EED: Helmut Schaffrath
!!!EEV: 1.0
*-
